shared/images/iconfont/kb-iconfont-proof-broken-16.svg

<?xml version="1.0" encoding="UTF-8"?>
<svg width="16px" height="16px" viewBox="0 0 16 16" version="1.1" xmlns="http://www.w3.org/2000/svg" xmlns:xlink="http://www.w3.org/1999/xlink">
    <!-- Generator: sketchtool 49.2 (51160) - http://www.bohemiancoding.com/sketch -->
    <title>56DE9AF4-5D13-4418-925A-8679E867D625</title>
    <desc>Created with sketchtool.</desc>
    <defs></defs>
    <g id="Colors,-icons" stroke="none" stroke-width="1" fill="none" fill-rule="evenodd">
        <g id="Icons-2" transform="translate(-307.000000, -339.000000)">
            <g id="kb-iconfont-proof-broken-16" transform="translate(307.000000, 339.000000)">
                <rect id="icon-area" fill="#D8D8D8" opacity="0" x="0" y="0" width="16" height="16"></rect>
                <path d="M8.8134798,0.708248894 L8.72869851,0.708248894 L4.58620408,7.24800735 C4.49686896,7.39077203 4.54018218,7.5789261 4.68294687,7.66826122 C4.74294309,7.7058039 4.81412997,7.72130834 4.88430487,7.7121168 L7.85932458,7.32244732 L5.58230361,11.8354258 C5.51064228,11.9878305 5.57609765,12.1694718 5.72850229,12.2411332 C5.85404573,12.3001642 6.00361242,12.2670141 6.09245673,12.160466 L10.9182302,6.20213155 C11.053047,6.04045011 11.0312688,5.80009087 10.8695874,5.66527415 C10.7910943,5.59982338 10.6896056,5.56863518 10.5879029,5.57871049 L7.87893081,5.84707823 L11.2189831,1.4221582 L12.3139667,1.52750667 L13.3221,3.85074667 L15.2213533,5.52689333 L14.66976,8 L15.2213533,10.4731067 L13.3221,12.14974 L12.31364,14.4724933 L9.79256,14.7148867 L9.12011333,15.1111667 L7.61067333,16 L6.10123333,15.1111667 L5.42846667,14.7148867 L2.90738667,14.4724933 L1.89925333,12.1492533 L0,10.4731067 L0.551593333,8 L0,5.52689333 L1.89925333,3.85074667 L2.90771333,1.52750667 L5.42879333,1.28495333 L7.61067333,0 L8.8134798,0.708248894 Z" id="Combined-Shape" fill="#000000" fill-rule="nonzero"></path>
            </g>
        </g>
    </g>
</svg>

<svg xmlns="http://www.w3.org/2000/svg" width="16" height="16" viewBox="0 0 16 16">
    <path fill="#000" fill-rule="nonzero" d="M8.813.708H8.73l-4.143 6.54a.305.305 0 0 0 .298.464l2.975-.39-2.277 4.513a.305.305 0 0 0 .51.325l4.826-5.958a.381.381 0 0 0-.33-.623l-2.71.268 3.341-4.425 1.095.106 1.008 2.323 1.9 1.676L14.67 8l.551 2.473-1.899 1.677-1.008 2.322-2.521.243-.673.396L7.61 16l-1.509-.889-.673-.396-2.52-.243-1.009-2.323L0 10.473.552 8 0 5.527 1.9 3.85l1.008-2.323 2.52-.243L7.612 0l1.202.708z"/>
</svg>
